X: 4
T: The Maid Of Mount Kisco
R: reel
M: 4/4
L: 1/8
K: Gmaj
AG | E A ~A2 B A~A2 | E A~A2{c}BG{B}AG | E G~G2A G~G2 | E G~G2EGED |
E A~A2{c}B A~A2 | E A~A2{c}BA{c}B/2c/2d | edef g/a/g fe | dBGA B A:|
dB | A~A2B dBAB | ~G2BG dGBG | A~A2BdBAB | egfa {a}gedB |
A ~A2B dBAB | ~G2 BG dGBG | A~A2B dBAB | gedB{B}A2 |
Bd | e a~a2bgag | e/f/e dB {A}GABd | f a~a2bgag | e/f/e de g2eg |
a ~a2f g~g2e | dedB GABd | e A~A2 efge | dBGB A2:|


Tune 432	Setting 432

